X:1
T:I fall and then I rise again - East
T:#
%%score { 1 | 2 } { 3 | 4 } 5 { ( 6 7 ) | ( 8 9 10 ) }
L:1/8
Q:1/4=120
M:2/2
K:F
V:1 treble nm="Soprano I" snm="S"
V:2 treble 
V:3 treble-8 nm="Tenor I"
V:4 treble-8 
V:5 bass nm="Bass" snm="B"
V:6 treble nm="Midi_7"
V:7 treble 
V:8 bass 
V:9 bass 
V:10 bass 
V:1
 A4 D3 E | FDF"^I Fall and Then I Rise Again"G A2 (Bc) | d8 |"^Michael East\n(1580?-1648)" z8 | %4
w: I fall and|then I rise a- gain a\- *|loft,||
[M:2/2] z8 | d4 D3 E | ^FD G4 F2 | G4 G4 | A8 | z4 z2 E2 | F3 G A2 d2 | A3 =B ^cA d2 | ^c2 f2 e4 | %13
w: |I fall and|then I rise a-|gain a-|loft,|a-|gain a- loft, I|fall and then I rise|a- gain a-|
 d4 z2 d2 |[M:2/2] d2 B4 |[M:3/4] A2 z4 | z4 z2 | z4 A2 |[M:3/4] e2 d2 ^c3 x | ^c c8 | %20
w: loft, I|sing and|sigh,||and|all with- in|a- stound,|
[M:3/4] z4 A2 | A4 G2 |[M:3/4] F8 x4 | z4 x8 |[M:3/2] z4 z2 B2 B2 B2 |[M:3/2] A6 A2 A4 x4 | %26
w: I|slept on|stones,||al- though my|bed be soft,|
[M:3/2] B2 B4 A2 G2 G2 | A4 f4 x4 |[M:2/2] e4 d4 | ^c4 (d4- | d2 ^c=B c4) | d4 D2 E^F | G4 E2 FG | %33
w: I slept on stones, on|stones, al-|though my|bed be||soft, I climb full|high, I climb full|
[M:2/2] A4 F2 GA | B3 B (ABAG x4 |[M:2/2] ^FGAG F2) G2 x4 | G2 ^F2 x4 |[M:2/2] G4 z4 | z8 | z8 x4 | %40
w: high, I climb full|high, then tum\- * * *|* * * * * ble|to the|ground,|||
[M:2/2] z8 |[M:2/2] z4 z4 x4 |[M:2/2] z4 z2 d2 | (fedc B)A G4 | ^F2 x6 |[M:2/2] G8 | z4 z2 c2 | %47
w: ||then|tum\- * * * * ble to|the|ground,|then|
 (B2 AG FEDE | ^F2) G2 d3 c | =B8 | z4 _e4- | e4 d2 c2 | =B4 B4 | c6 c2 | c4 c4 | =B8 | A4 z2 e2 | %57
w: tum\- * * * * * *|* ble to the|ground,|thus|* my poor|heart with|Cu- pid's|dart sore|wound-|ed, doth|
 ^c2 d2 c4 | z4 z2 A2 | A2 F2 A4 | z2 D2 A3 A | A2 F2 E4 | ^F2 D2 A3 A | G2 B2 A4 | A4 z4 | %65
w: tire it- self,|doth|tire it- self,|and thus sweet|love is found-|ed, and thus sweet|love is found-|ed,|
 z2 D2 A3 A | A2 F2 E4 | G2 G2 E4 x8 | ^F2[Q:1/4=118] A2[Q:1/4=115] d3[Q:1/4=113] d | %69
w: and thus sweet|love is found-|ed, is found-|ed, and thus sweet|
[Q:1/4=111] ^c2[Q:1/4=108] d4[Q:1/4=105] c2 |[Q:1/4=104] d16 |] %71
w: love is found-|ed.|
V:2
 z4 A4 | D3 E FD G2- | G2 ^F2 G (ABc) | d8 |[M:2/2] d8 | B3 c d4 | z4 d4 | G3 A BGBc | d8 | %9
w: I|fall and then I rise|* a- gain a\- * *|loft,|a-|gain a- loft,|I|fall and then I rise a-|gain|
 (e2 f2 e4) | d2 d2 A3 =B | ^cAcd e2 (f2 | e2 d4 ^c2) | d4 z2 B2 |[M:2/2] A2 G4 | %15
w: a\- * *|loft, I fall and|then I rise a- gain a\-||loft, I|sing and|
[M:3/4] ^F2 z2 D2 | E2 F4 | E2 z2 c2 |[M:3/4] c2 A2 A3 A | A8 x |[M:3/4] z6 | z2 c2 c2- | %22
w: sigh, I|sing and|sigh, and|all with- in a-|stound,||I slept|
[M:3/4] c2 B2 A8 | x12 |[M:3/2] A4 d6 (ed |[M:3/2] ^c2) d4 c2 x8 |[M:3/2] d8 d2 d2- | %27
w: * on stones,||al- though my *|* bed be|soft, I slept|
 d2 ^c2 d4 A4 |[M:2/2] c4 B4 | A8- | A4 A4 | ^F4 F2 GA | B4 G2 AB |[M:2/2] c4 A2 Bc | %34
w: * on stones, al-|though my|bed|* be|soft, I climb full|high, I climb full|high, I climb full|
 d3 d (cdcB x4 |[M:2/2] ABcB A2) G2 A3 A | x8 |[M:2/2] G4 z4 | z8 | z8 x4 |[M:2/2] z8 | %41
w: high, then tum\- * * *|* * * * * ble to the||ground,||||
[M:2/2] z4 z4 z4 |[M:2/2] z2 B2 (dcBA | GF) _E2 D3 D x2 | x8 |[M:2/2] D4 z4 | z2 A2 d2 _e2 | %47
w: |then tum\- * * *|* * ble to the||ground,|then tum- ble,|
 (d2 cB AG^FG | A2) G2 G2 ^F2 | G8 | z4 G4- | G4 F2 _E2 | D4 D4 | =E6 E2 | E4 E4 | E8 | E4 z2 E2 | %57
w: tum\- * * * * * *|* ble to the|ground,|thus|* my poor|heart with|Cu- pid's|dart sore|wound-|ed, doth|
 A2 F2 A4 | z4 z2 e2 | ^c2 d2 c4 | z8 | z2 D2 A3 A | A2 =F2 E4 | G2 G2 E4 | ^F2 D2 A3 A | %65
w: tire it- self,|doth|tire it- self,||and thus sweet|love is found-|ed, is found-|ed, and thus sweet|
 A2 =F2 E4 | F2 D2 A3 A | G2 B2 A4 x8 | A2 ^F2 G2 G2 | A2 A2 A4 | ^F16 |] %71
w: love is found-|ed, and thus sweet|love is found-|ed, and thus sweet|love is found-|ed.|
V:3
 z8 | z8 | d4 G3 A | BGBc d3 e |[M:2/2][K:treble-8] (^fd g3 f/e/ f2) | g8 | z2 d2 A2 d2 | d8 | %8
w: ||I fall and|then I rise a- gain a\-||loft,|a- gain a-|loft,|
 z2 d2 A3 =B | ^cA d4 c2 | d2 A2 d4 | z8 | z2 d2 e3 e | ^f4 z2 g2 |[M:2/2] ^f2 g4 | %15
w: I fall and|then I rise a-|gain a- loft,||a- gain a-|loft, I|sing and|
[M:3/4][K:treble-8] d2 z2 f2 | e2 d4 | ^c2 z2 A2 |[M:3/4] c2 f2 e3 x | e e8 |[M:3/4] z4 f2 | %21
w: sigh, I|sing and|sigh, and|all with- in|a- stound,|I|
 f4 e2 |[M:3/4] d8 x4 | z2 e2 x8 |[M:3/2][K:treble-8] d4 d2 g4 g2 |[M:3/2] g2 f2 e3 e ^f4 x4 | %26
w: slept on|stones,|I|slept on stones, al-|though my bed be soft,|
[M:3/2] z4 z4 z2 e2 | f4 d4 x4 |[M:2/2][K:treble-8] e2 c2 g4- | g4 f4 | e6 e2 | d4 z4 | G2 AB c4 | %33
w: I|slept on|stones, al- though|* my|bed be|soft,|I climb full high,|
[M:2/2][K:treble-8] A2 Bc d4 | B2 cd _e2 c2 x4 |[M:2/2] d2 d2 (dcB)G x4 | d2 d2 x4 | %37
w: I climb full high,|I climb full high, full|high, then tum\- * * ble|to the|
[M:2/2][K:treble-8] G4 ^F2 GA | B4 G2 AB | c4 A2 Bc x4 |[M:2/2][K:treble-8] d3 d (cdcB | %41
w: ground, 1 climb full|high, I climb full|high, I climb full|high, then tum\- * * *|
[M:2/2] ABcB A2) G2 x4 |[M:2/2] A2 A2 G4 | z4 G2 cB x2 | A (G A2) x4 | %45
w: * * * * * ble|to the ground,|then tum- ble|to the *|
[M:2/2][K:treble-8] G4 z2 c2 | (fed)c BA G2 | d8- | d4 d4 | d8 | z4 B4- | B4 f2 c2 | g4 g4 | %53
w: ground, then|tum\- * * ble to the ground,|to|* the|ground,|thus|* my poor|heart with|
 c6 c2 | c4 A4 | =B8 | ^c4 z2 A2 | A2 d2 A2 e2 | ^c2 d2 c2 c2 | A2 d2 A2 A2 | A2 F2 A4 | z4 z2 A2 | %62
w: Cu- pid's|dart sore|wound-|ed, doth|tire it- self, doth|tire it- self, doth|tire it- self, doth|tire it- self,|and|
 d3 d d2 ^c2 | d4 A4 | z4 z2 ^c2 | A3 A A2 A2 | A4 A2 A2 | d3 d d2 ^c2 x8 | d2 AA B2 d2 | A8 | %70
w: thus sweet love is|found- ed,|and|thus sweet love is|found- ed, and|thus sweet love is|found- ed, sweet love is|found-|
 A16 |] %71
w: ed.|
V:4
 z8 | z8 | z4 d4 | G3 A BGBc |[M:2/2][K:treble-8] d2 G2 A4 | z8 | z2 G2 A2 A2 | B4 G4 | D3 E FDFG | %9
w: ||I|fall and then I rise a-|gain a- loft,||a- gain a-|loft, I|fall and then I rise a-|
 A4 A4 | A8 | z4 A4 | A6 A2 | A4 z4 |[M:2/2] z6 |[M:3/4][K:treble-8] z4 A2 | A2 A4 | A2 z2 F2 | %18
w: gain a-|loft,|a-|gain a-|loft,||I|sing and|sigh, and|
[M:3/4] G2 F2 A2 E2 | E8 x |[M:3/4] z6 | z6 |[M:3/4] z4 F2 F4 E2 | x12 | %24
w: all with- in a-|stound,|||I slept on||
[M:3/2][K:treble-8] F3 E D4 D4 |[M:3/2] A6 A2 x8 |[M:3/2] A4 G2 G4 (F2 | E4) D8 | %28
w: stones, al- though my|bed be|soft, I slept on|* stones,|
[M:2/2][K:treble-8] z4 D4 | A4 A4 | A6 A2 | A4 z4 | z8 |[M:2/2][K:treble-8] z8 | z8 x4 | %35
w: al-|though my|bed be|soft,||||
[M:2/2] z4 z4 z4 | x8 |[M:2/2][K:treble-8] z4 D2 E^F | G4 E2 FG | A4 F2 GA x4 | %40
w: ||I climb full|high, I climb full|high, I climb full|
[M:2/2][K:treble-8] B3 B (ABAG |[M:2/2] ^FGAG F2) G2 G2 F2 |[M:2/2] G4 z4 | z8 x2 | x8 | %45
w: high then tum\- * * *|* * * * * ble to the|ground,|||
[M:2/2][K:treble-8] z2 d2 (cBA)G | A2 A2 G4 | z4 z2 A2- | A2 BG A2 A2 | G8 | z4 G4- | G4 B2 G2 | %52
w: then tum\- * * ble|to the ground,|then|* tum- ble to the|ground,|thus|* my poor|
 G6 G2 | G4 G4 | A4 A4- | A4 ^G4 | A8 | z4 z2 A2 | A2 F2 A4 | z4 z2 e2 | ^c2 d2 c2 c2 | %61
w: heart with|Cu- pid's|dart sore|* wound-|ed,|doth|tire it- self,|doth|tire it- self, and|
 A3 A A2 A2 | A4 A2 A2 | d3 d d2 ^c2 | d6 A2 | z4 z2 A2 | d3 d d2 ^c2 | d4 A4 x8 | A2 d4 d2 | %69
w: thus sweet love is|found- ed, and|thus sweet love is|found- ed,|and|thus sweet love is|found- ed,|and thus sweet|
 e2 f2 e4 | d16 |] %71
w: love is found-|ed.|
V:5
 z8 | z8 | z8 | z8 |[M:2/2] z4 D,4 | G,,3 A,, B,,G,,B,,C, | D,2 B,,2 D,2 D,2 | G,8 | z8 | %9
w: ||||I|fall and then I rise a-|gain a- loft, a-|loft,||
 z4 z2 A,2 | D,3 E, F,D,F,G, | A,8 | A,,8 | D,4 z4 |[M:3/4] z6 |[M:3/4] z4 D,2 | ^C,2 D,4 | %17
w: I|fall and then I rise a-|gain|a-|loft,||I|sing and|
 A,,2 z2 F,2 |[M:2/2] C,2 D,2 A,,3 A,, | A,,8 x |[M:3/4] z6 | z6 |[M:3/2] z4 D,2 D,4 ^C,2 | %23
w: sigh, and|all with- in a-|stound,|||I slept on|
[M:3/2] D,3 C, B,,4 G,,4 |[M:2/2] A,,6 A,,2 x4 |[M:3/2] D,4 z4 z4 x4 | z4 z4 D,4 | %27
w: stones, al- though my|bed be|soft,|al-|
[M:2/2] C,4 G,,4 x4 | A,,8- | A,,4 A,,4 | D,4 z4 | z8 |[M:2/2] z8 | z8 |[M:3/2] z4 z4 z4 | %35
w: though my|bed|* be|soft,|||||
[M:2/2] z8 x4 | G,,2 A,,B,, C,4 | A,,2 B,,C, D,4 |[M:2/2] B,,2 C,D, _E,2 C,2 | %39
w: |I climb full high,|I climb full high,|I climb full high, full|
[M:3/2] D,2 D,2 (D,C,B,,)G,, D,2 D,2 |[M:2/2] G,,4 D,4 | (G,2 C,2 D,3) C, x4 | %42
w: high, then tum\- * * ble to the|ground, then|tum\- * * ble|
[M:2/2] =B,,A,,G,,G,, (_E,D,C,)_B,, | A,,2 D,2 G,,2 C,2 x2 | D,6 D,2 | D,4 D,4 | G,,8 | z4 _E,4- | %48
w: to the ground, then tum\- * * ble|to the ground, then|tum- ble|to the|ground,|thus|
 E,4 B,,2 C,2 | G,,4 G,,4 | C,6 C,2 | A,,4 A,,4 | E,8 | A,,8 | z4 z2 A,,2 | A,,2 D,2 A,,4 | %56
w: * my poor|heart with|Cu- pid's|dart sore|wound-|ed,|doth|tire it- self,|
 z4 z2 A,,2 | A,,2 D,2 A,,2 A,,2 | D,3 D, D,2 ^C,2 | D,4 A,,2 A,,2 | B,,2 G,,2 A,,4 | D,4 z2 A,,2 | %62
w: doth|tire it- self, and|thus sweet love is|found- ed, sweet|love is found-|ed, and|
 D,3 D, D,2 ^C,2 | D,4 A,,2 A,,2 | B,,2 G,,2 A,,4 | D,2 D,2 G,,2 B,,2 | A,,8 | D,16 | x8 | x8 | %70
w: thus sweet love is|found- ed, sweet|love is found-|ed, sweet love is|found-|ed.|||
 x16 |] %71
w: |
V:6
 A4 D3 E | FDFG A2 Bc | d8 | x8 |[M:2/2] x8 | d4 D3 E | ^FD G4 F2 | G4 G4 | A8 | x4 x2 E2 | %10
 F3 G A2 d2 | A3 =B ^cA d2 | ^c2 f2 e4 | d4 z2 d2 |[M:2/2] d2 B4 |[M:3/4] A2 x4 | x4 x2 | x4 A2 | %18
[M:3/4] e2 d2 ^c3 x | ^c c8 |[M:3/4] z4 A2 | A4 G2 |[M:3/4] F8 x4 | x4 x8 |[M:3/2] x4 x2 B4 B2 | %25
[M:3/2] A6 A2 A4 x4 |[M:3/2] B2 B4 A2 G2 G2 | A4 f4 x4 |[M:2/2] e4 d4 | ^c4 d4- | d2 ^c=B c4 | %31
 d4 D2 E^F | G4 E2 FG |[M:2/2] A4 F2 GA | B3 B ABAG x4 |[M:2/2] ^FGAG F2 G2 x4 | G2 ^F2 x4 | %37
[M:2/2] G4 z4 | z8 | z8 x4 |[M:2/2] z8 |[M:2/2] z4 z4 x4 |[M:2/2] z4 z2 d2 | fedc BA G4 | ^F2 x6 | %45
[M:2/2] G8 | x4 x2 c2 | B2 AG FEDE | ^F2 G2 d3 c | =B8 | z4 _e4- | e4 d2 c2 | =B4 B4 | c6 c2 | %54
 c4 c4 | =B8 | A4 z2 e2 | ^c2 d2 c4 | x4 x2 A2 | A2 F2 A4 | x2 D2 A3 A | A2 F2 E4 | ^F2 D2 A3 A | %63
 G2 B2 A4 | A4 x4 | x2 D2 A3 A | A2 F2 E2- E2 | G2 G2 E2- E2 x8 | ^F2 A2 d3 d | ^c2 d4 c2 | d16 |] %71
V:7
 x4 A4 | D3 E FD G2- | G2 ^F2 GABc | d8 |[M:2/2] d8 | B3 c d4 | x4 d4 | G3 A BGBc | d8 | e2 f2 e4 | %10
 d2 d2 A3 =B | ^cAcd e2 f2 | e2 d4 ^c2 | d4 z2 B2 |[M:2/2] A2 G4 |[M:3/4] ^F2 z2 D2 | E2 F4 | %17
 E2 z2 c2 |[M:3/4] c2 A2 A3 x | A A8 |[M:3/4] x6 | z2 c2 c2- |[M:3/4] c2 B2 A8 | x12 | %24
[M:3/2] A4 d6 ed |[M:3/2] ^c2 d4 c2 d8 |[M:3/2] d2 d2- d2 ^c2 d4 | A4 x8 |[M:2/2] c4 B4 | A8- | %30
 A4 A4 | ^F4 F2 GA | B4 G2 AB |[M:2/2] c4 A2 Bc | d3 d cdcB x4 |[M:2/2] ABcB A2 G2 x4 | A3 A x4 | %37
[M:2/2] G4 z4 | z8 | z8 x4 |[M:2/2] z8 |[M:2/2] z4 z4 x4 |[M:2/2] z4 z2 B2 | dcBA GF _E2 x2 | %44
 D3 D x4 |[M:2/2] D2 x6 | x2 A2 d2 _e2 | d2 cB AG^FG | A2 G2 G2 ^F2 | G8 | z4 G4- | G4 F2 _E2 | %52
 D4 D4 | =E6 E2 | E4 E4 | E8 | E4 z2 E2 | A2 F2 A4 | x4 x2 e2 | ^c2 d2 c4 | x8 | x2 D2 A3 A | %62
 A2 =F2 E2- E2 | G2 G2 E2- E2 | ^F2 D2 A3 A | A2 F2 E4 | F2 D2 A3 A | G2 B2 A4 x8 | A2 ^F2 G2 G2 | %69
 A2 A2 A4 | ^F16 |] %71
V:8
 z8 | z8 | D4 G,3 A, | B,G,B,C D3 E |[M:2/2][I:staff -1] ^FD G3 F/E/ F2 | G8 | %6
[I:staff +1] x2[I:staff -1] D2[I:staff +1] A,2 D2 | D8 | z2 D2 A,3 =B, | ^CA, D4 C2 | D2 A,2 D4 | %11
 x8 | x2[I:staff -1] D2 E3 E | ^F4[I:staff +1] x2[I:staff -1] G2 |[M:2/2] ^F2 G4 | %15
[M:3/4] D2[I:staff +1] z2[I:staff -1] F2 | E2 D4 | ^C2[I:staff +1] z2 A,2 | %18
[M:3/4] C2[I:staff -1] F2 E3 E | E8[I:staff +1] x |[M:3/4] x4[I:staff -1] F2 | F4 E2 | %22
[M:3/4] D8[I:staff +1] x2[I:staff -1] E2 |[I:staff +1] x12 |[M:3/2][I:staff -1] D4 D2 G4 G2 | %25
[M:3/2] G2 F2 E3 E[I:staff +1] x8 |[M:3/2][I:staff -1] ^F4[I:staff +1] z4 z4 | %27
 x2[I:staff -1] E2 F4[I:staff +1] D4 |[M:2/2][I:staff -1] E2 C2 G4- | G4 F4 | E6 E2 | %31
 D4[I:staff +1] z4 | G,2 A,B, C4 |[M:2/2] A,2 B,C D4 | B,2 CD _E2 C2 x4 | %35
[M:2/2] D2 D2 DCB,G, D2 D2 | x8 |[M:2/2] G,4 ^F,2 G,A, | B,4 G,2 A,B, | C4 A,2 B,C x4 | %40
[M:2/2] D3 D CDCB, |[M:2/2] A,B,CB, A,2 G,2 A,2 A,2 |[M:2/2] G,4 x4 | x8 x2 | x8 | %45
[M:2/2] G,4 x2[I:staff -1] C2 | FEDC[I:staff +1] B,A, G,2 | D8- | D4 D4 |[I:staff -1] D8 | %50
[I:staff +1] z4 B,4- | B,4[I:staff -1] F2 C2 | G4 G4 | C6 C2 | C4[I:staff +1] A,4 | %55
[I:staff -1] =B,8 | ^C4[I:staff +1] z2 A,2 | A,2 D2 A,2[I:staff -1] E2 | ^C2 D2 C2 C2 | %59
[I:staff +1] A,2 D2 A,2 A,2 | A,2 F,2 A,4 | x4 x2 A,2 |[I:staff -1] D3 D [DE]2 ^C2 | %63
 x4[I:staff +1] A,4 | x4 x2[I:staff -1] ^C2 |[I:staff +1] A,3 A, A,2 A,2 | A,4 A,2 A,2 | %67
[I:staff -1] D3 D [DE]2 ^C2[I:staff +1] x8 |[I:staff -1] D2[I:staff +1] A,2 B,2[I:staff -1] D2 | %69
[I:staff +1] A,8 | A,16 |] %71
V:9
 z8 | z8 | x4 D4 | G,3 A, B,G,B,C |[M:2/2] D2 G,2 A,4 | x8 | x2 G,2 A,2 A,2 | B,4 G,4 | %8
 D,3 E, F,D,F,G, | A,4 A,4 | A,8 | x4 A,4 | A,6 A,2 | A,4 x4 |[M:2/2] z6 |[M:3/4] z4 A,2 | %16
 A,2 A,4 | A,2 z2 F,2 |[M:3/4] G,2 F,2 A,2 E,2 | E,8 x |[M:3/4] z6 | z6 |[M:3/4] z4 F,2 F,4 E,2 | %23
 x12 |[M:3/2] F,3 E, D,4 D,4 |[M:3/2] A,6 A,2 x8 |[M:3/2] A,4 G,2 G,4 F,2 | E,4 D,8 | %28
[M:2/2] x4 D,4 | A,4 A,4 | A,6 A,2 | A,4 z4 | x8 |[M:2/2] x8 | x8 x4 |[M:2/2] x4 x4 x4 | x8 | %37
[M:2/2] z4 D,2 E,^F, | G,4 E,2 F,G, | A,4 F,2 G,A, x4 |[M:2/2] B,3 B, A,B,A,G, | %41
[M:2/2] ^F,G,A,G, F,2 G,2 [G,A,]2 F,2 |[M:2/2] G,4 x4 | x8 x2 | x8 | %45
[M:2/2] x2[I:staff -1] D2[I:staff +1] CB,A,G, | A,2 A,2 G,2 x2 | x4 x2 A,2- | A,2 B,G, A,2 A,2 | %49
 G,8 | z4 G,4- | G,4 B,2 G,2 | G,6 G,2 | G,4 G,4 | A,4 A,4- | A,4 ^G,4 | A,8 | x4 x2 A,2 | %58
 A,2 F,2 A,4 | x4 x2[I:staff -1] E2 | ^C2 D2 C2 C2 |[I:staff +1] A,3 A, A,2 A,2 | A,4 A,2 A,2 | %63
[I:staff -1] D3 D [DE]2 ^C2 |[I:staff +1] D6 A,2 | x4 x2 A,2 |[I:staff -1] D3 D [DE]2 ^C2 | %67
 x4[I:staff +1] A,4 x8 | A,2[I:staff -1] D4 D2 | E2 F2 E4 | D16 |] %71
V:10
 z8 | z8 | x8 | x8 |[M:2/2] x4 D,4 | G,,3 A,, B,,G,,B,,C, | D,2 B,,2 D,2 D,2 | G,8 | x8 | %9
 x4 x2 A,2 | D,3 E, F,D,F,G, | A,8 | A,,8 | D,4 x4 |[M:2/2] z6 |[M:3/4] z4 D,2 | ^C,2 D,4 | %17
 A,,2 z2 F,2 |[M:3/4] C,2 D,2 A,,3 A,, | A,,8 x |[M:3/4] z6 | z6 |[M:3/4] z4 D,2 D,4 ^C,2 | x12 | %24
[M:3/2] D,3 C, B,,4 G,,4 |[M:3/2] A,,6 A,,2 x8 |[M:3/2] D,4 x4 x4 | x4 x4 D,4 |[M:2/2] C,4 G,,4 | %29
 A,,8- | A,,4 A,,4 | D,4 z4 | x8 |[M:2/2] x8 | x8 x4 |[M:2/2] x4 x4 x4 | x8 |[M:2/2] x8 | %38
 G,,2 A,,B,, C,4 | A,,2 B,,C, D,4 x4 |[M:2/2] B,,2 C,D, _E,2 C,2 | %41
[M:2/2] D,2 D,2 D,C,B,,G,, D,2 D,2 |[M:2/2] G,,4 D,4 | G,2 C,2 D,3 C, x2 | x8 | %45
[M:2/2] =B,,A,,G,,G,, _E,D,C,_B,, | A,,2 D,2 G,,2 C,2 | D,6 D,2 | D,4 D,4 | G,,8 | z4 _E,4- | %51
 E,4 B,,2 C,2 | G,,4 G,,4 | C,6 C,2 | A,,4 A,,4 | E,8 | A,,8 | x4 x2 A,,2 | A,,2 D,2 A,,4 | %59
 x4 x2 A,,2 | A,,2 D,2 A,,2 A,,2 | D,3 D, D,2 ^C,2 | D,4 A,,2 A,,2 | B,,2 G,,2 A,,4 | D,4 z2 A,,2 | %65
 D,3 D, D,2 ^C,2 | D,4 A,,2 A,,2 | B,,2 G,,2 A,,4 x8 | D,2 D,2 G,,2 B,,2 | A,,8 | D,16 |] %71

